X:565
T:Miss Maria Dundas
R:Reel
B:The Athole Collection
M:C|
L:1/8
K:G
g|dG G/G/G d2Bd|egfg dBBg|dG G/G/G d2Bd|egdB A/A/A A:|
a|g/a/b ab geeg|dgBg dBBd|g/a/b ab geeg|dgdB A/A/A a2|
g/a/b ab geeg|dgBg GABd|gbab gaeg|dBgB A/A/A A||

